components/brave_wallet_ui/page/screens/swap/assets/lp-icons/orca.svg

<svg xmlns="http://www.w3.org/2000/svg" width="439" height="439" fill="none"><path fill="#FFD15C" d="M439 219.5C439 340.726 340.726 439 219.5 439S0 340.726 0 219.5 98.274 0 219.5 0 439 98.274 439 219.5Z"/><path fill="#000" d="M381.027 185.904c-11.104-15.549-22.889-23.7-30.266-27.66a162.254 162.254 0 0 0-8.61-14.052c-9.081-13.275-18.544-24.786-28.12-34.214-8.956-8.816-18.3-16.091-27.772-21.622-16.484-9.628-33.579-14.324-52.265-14.36h-.214c-17.107 0-32.731 3.893-45.765 7.703-3.741 1.093-7.54 2.276-11.222 3.425-9.409 2.93-18.298 5.699-25.798 6.933-5.11.842-9.116 2.77-11.902 5.729-2.631 2.794-4.199 6.531-4.657 11.104-.855 8.553 2.179 20.013 8.775 33.142 13.194 26.261 38.466 55.172 64.385 73.657a69.483 69.483 0 0 1 7.554 6.248 1.68 1.68 0 0 1-.107.023c-20.155 2.878-30.657 24.54-34.909 36.244-1.109 3.052 1.908 5.787 4.989 4.747 12.213-4.117 36.827-10.706 51.238-2.855 2.692 12.876 1.557 25.5-3.302 35.365-2.98 6.05-7.226 10.886-12.62 14.376-5.817 3.764-12.843 5.868-20.887 6.256-8.717.421-18.598-1.183-29.367-4.768-11.718-3.902-24.586-10.184-38.246-18.675l-.253-.155-.263-.14a13.92 13.92 0 0 1-.481-.274c19.553-23.564 7.631-59.15 2.86-70.881-.637-1.565-2.795-1.554-3.655-.098-11.172 18.916-34.086 17.512-33.68 40.04l-.028-.051c-17.518-14.245-30.522 4.706-52.32 1.86-1.677-.218-3.014 1.477-2.172 2.941 6.287 10.949 26.877 42.089 57.324 41.392a842.394 842.394 0 0 1 3.69 4.041l3.674 4.054c14.921 16.466 31.263 29.532 48.573 38.837 16.123 8.667 33.093 14.091 50.44 16.125 5.196.61 10.406.912 15.612.912 30.204 0 60.226-10.156 85.945-29.313 14.428-10.746 26.76-23.715 36.65-38.544 10.123-15.177 17.21-31.603 21.062-48.819 2.567-11.469 3.632-23.038 3.197-34.577 9.551-2.841 20.097 5.58 25.259 10.523 1.26 1.206 3.338.458 3.28-1.286-.267-7.905-2.534-24.996-15.626-43.333Zm-87.033 143.788c-25.956 18.4-56.471 26.59-86.286 23.094-15.129-1.774-29.976-6.531-44.13-14.141-13.513-7.263-26.438-17.158-38.502-29.466 26.96 16.372 51.049 24.654 71.702 24.654 1.221 0 2.43-.028 3.625-.086 11.199-.542 21.169-3.593 29.636-9.073 8.112-5.247 14.461-12.45 18.874-21.403 3.929-7.975 6.115-16.944 6.496-26.665.356-9.075-.867-18.349-3.638-27.565-5.82-19.341-17.863-36.297-33.91-47.743-11.885-8.477-23.808-19.467-34.472-31.778-8.628-9.958-15.966-20.211-21.471-29.971l.002-.012s-.044-.067-.114-.188l-.167-.3c-.914-1.706-3.316-7.368 4.252-8.449 71.493-10.211 216.961 125.609 128.103 199.092Z"/><path fill="#fff" d="M165.891 130.6c-7.57 1.081-5.166 6.74-4.252 8.449l.167.3c.072.121.114.188.114.188l-.002.012c5.505 9.76 12.843 20.013 21.471 29.971 10.667 12.311 22.587 23.301 34.472 31.778 16.049 11.446 28.092 28.402 33.909 47.743 2.772 9.216 3.995 18.49 3.639 27.565-.381 9.718-2.567 18.69-6.496 26.665-4.413 8.953-10.762 16.156-18.874 21.403-8.468 5.478-18.439 8.531-29.636 9.073a74.89 74.89 0 0 1-3.625.086c-20.653 0-44.742-8.282-71.702-24.654 12.064 12.308 24.989 22.203 38.502 29.466 14.154 7.61 29.001 12.367 44.13 14.141 29.815 3.494 60.33-4.697 86.286-23.094 88.858-73.483-56.61-209.303-128.103-199.092Z"/><path fill="#000" d="M115.693 293.02c0 .002.034.009.093.016-.065-.016-.096-.018-.093-.016Zm2.906-1.286.035-.055c-.003-.003-.014.016-.035.055Z"/><path fill="#fff" d="M240.364 125.636c-2.481-3.475-7.447-12.908 7.945-12.908 15.393 0 38.91 17.428 43.693 23.875-1.491 3.93-11.421 4.808-16.384 4.427-4.966-.381-13.406-1.197-19.86-4.427-6.457-3.229-12.911-7.491-15.394-10.967Z"/></svg>

<svg width="439" height="439" viewBox="0 0 439 439" fill="none" xmlns="http://www.w3.org/2000/svg">
    <path
        d="M439 219.5C439 340.726 340.726 439 219.5 439C98.274 439 0 340.726 0 219.5C0 98.274 98.274 0 219.5 0C340.726 0 439 98.274 439 219.5Z"
        fill="#FFD15C" />
    <path
        d="M381.027 185.904C369.923 170.355 358.138 162.204 350.761 158.244C348.171 153.485 345.302 148.798 342.151 144.192C333.07 130.917 323.607 119.406 314.031 109.978C305.075 101.162 295.731 93.8868 286.259 88.3557C269.775 78.728 252.68 74.0316 233.994 73.9967C233.922 73.9967 233.852 73.9967 233.78 73.9967C216.673 73.9967 201.049 77.8887 188.015 81.6993C184.274 82.7921 180.475 83.9755 176.793 85.124C167.384 88.0534 158.495 90.8225 150.995 92.057C145.885 92.8987 141.879 94.8261 139.093 97.7858C136.462 100.58 134.894 104.317 134.436 108.89C133.581 117.443 136.615 128.903 143.211 142.032C156.405 168.293 181.677 197.204 207.596 215.689C210.256 217.587 212.779 219.679 215.15 221.937C215.115 221.946 215.08 221.953 215.043 221.96C194.888 224.838 184.386 246.5 180.134 258.204C179.025 261.256 182.042 263.991 185.123 262.951C197.336 258.834 221.95 252.245 236.361 260.096C239.053 272.972 237.918 285.596 233.059 295.461C230.079 301.511 225.833 306.347 220.439 309.837C214.622 313.601 207.596 315.705 199.552 316.093C190.835 316.514 180.954 314.91 170.185 311.325C158.467 307.423 145.599 301.141 131.939 292.65L131.686 292.495L131.423 292.355C131.268 292.271 131.105 292.178 130.942 292.081C150.495 268.517 138.573 232.931 133.802 221.2C133.165 219.635 131.007 219.646 130.147 221.102C118.975 240.018 96.0606 238.614 96.4674 261.142C96.4581 261.124 96.4488 261.108 96.4395 261.091C78.9209 246.846 65.9174 265.797 44.1185 262.951C42.4422 262.733 41.1054 264.428 41.947 265.892C48.2337 276.841 68.8236 307.981 99.2714 307.284C100.48 308.602 101.878 310.127 102.961 311.325L106.635 315.379C121.556 331.845 137.898 344.911 155.208 354.216C171.331 362.883 188.301 368.307 205.648 370.341C210.844 370.951 216.054 371.253 221.26 371.253C251.464 371.253 281.486 361.097 307.205 341.94C321.633 331.194 333.965 318.225 343.855 303.396C353.978 288.219 361.065 271.793 364.917 254.577C367.484 243.108 368.549 231.539 368.114 220C377.665 217.159 388.211 225.58 393.373 230.523C394.633 231.729 396.711 230.981 396.653 229.237C396.386 221.332 394.119 204.241 381.027 185.904ZM293.994 329.692C268.038 348.092 237.523 356.282 207.708 352.786C192.579 351.012 177.732 346.255 163.578 338.645C150.065 331.382 137.14 321.487 125.076 309.179C152.036 325.551 176.125 333.833 196.778 333.833C197.999 333.833 199.208 333.805 200.403 333.747C211.602 333.205 221.572 330.154 230.039 324.674C238.151 319.427 244.5 312.224 248.913 303.271C252.842 295.296 255.028 286.327 255.409 276.606C255.765 267.531 254.542 258.257 251.771 249.041C245.951 229.7 233.908 212.744 217.861 201.298C205.976 192.821 194.053 181.831 183.389 169.52C174.761 159.562 167.423 149.309 161.918 139.549L161.92 139.537C161.92 139.537 161.876 139.47 161.806 139.349C161.75 139.249 161.694 139.149 161.639 139.049C160.725 137.343 158.323 131.681 165.891 130.6C237.384 120.389 382.852 256.209 293.994 329.692Z"
        fill="black" />
    <path
        d="M165.891 130.6C158.321 131.681 160.725 137.34 161.639 139.049C161.694 139.149 161.75 139.249 161.806 139.349C161.878 139.47 161.92 139.537 161.92 139.537L161.918 139.549C167.423 149.309 174.761 159.562 183.389 169.52C194.056 181.831 205.976 192.821 217.861 201.298C233.91 212.744 245.953 229.7 251.77 249.041C254.542 258.257 255.765 267.531 255.409 276.606C255.028 286.324 252.842 295.296 248.913 303.271C244.5 312.224 238.151 319.427 230.039 324.674C221.571 330.152 211.6 333.205 200.403 333.747C199.208 333.805 197.996 333.833 196.778 333.833C176.125 333.833 152.036 325.551 125.076 309.179C137.14 321.487 150.065 331.382 163.578 338.645C177.732 346.255 192.579 351.012 207.708 352.786C237.523 356.28 268.038 348.089 293.994 329.692C382.852 256.209 237.384 120.389 165.891 130.6Z"
        fill="white" />
    <path
        d="M115.693 293.02C115.693 293.022 115.727 293.029 115.786 293.036C115.721 293.02 115.69 293.018 115.693 293.02Z"
        fill="black" />
    <path
        d="M118.599 291.734C118.622 291.699 118.634 291.679 118.634 291.679C118.631 291.676 118.62 291.695 118.599 291.734Z"
        fill="black" />
    <path
        d="M240.364 125.636C237.883 122.161 232.917 112.728 248.309 112.728C263.702 112.728 287.219 130.156 292.002 136.603C290.511 140.533 280.581 141.411 275.618 141.03C270.652 140.649 262.212 139.833 255.758 136.603C249.301 133.374 242.847 129.112 240.364 125.636Z"
        fill="white" />
</svg>
